storage/app/icons/phosphoricons/duotone/bug-droid-duotone.svg

<svg xmlns="http://www.w3.org/2000/svg" fill="currentColor" viewBox="0 0 256 256"><path d="M208 128v24a80 80 0 0 1-160 0v-24Z" opacity=".2"/><path d="m191.83 51.48 13.83-13.82a8 8 0 0 0-11.32-11.32L179.79 40.9a87.81 87.81 0 0 0-103.58 0L61.66 26.34a8 8 0 0 0-11.32 11.32l13.83 13.82A87.72 87.72 0 0 0 40 112v40a88 88 0 0 0 176 0v-40a87.72 87.72 0 0 0-24.17-60.52M128 40a72.08 72.08 0 0 1 72 72v8H56v-8a72.08 72.08 0 0 1 72-72m0 184a72.08 72.08 0 0 1-72-72v-16h144v16a72.08 72.08 0 0 1-72 72m16-132a12 12 0 1 1 12 12 12 12 0 0 1-12-12m-56 0a12 12 0 1 1 12 12 12 12 0 0 1-12-12"/></svg>

<svg xmlns="http://www.w3.org/2000/svg" viewBox="0 0 256 256" fill="currentColor"><path d="M208,128v24a80,80,0,0,1-160,0V128Z" opacity="0.2"/><path d="M191.83,51.48l13.83-13.82a8,8,0,0,0-11.32-11.32L179.79,40.9a87.81,87.81,0,0,0-103.58,0L61.66,26.34A8,8,0,0,0,50.34,37.66L64.17,51.48A87.72,87.72,0,0,0,40,112v40a88,88,0,0,0,176,0V112A87.72,87.72,0,0,0,191.83,51.48ZM128,40a72.08,72.08,0,0,1,72,72v8H56v-8A72.08,72.08,0,0,1,128,40Zm0,184a72.08,72.08,0,0,1-72-72V136H200v16A72.08,72.08,0,0,1,128,224ZM144,92a12,12,0,1,1,12,12A12,12,0,0,1,144,92ZM88,92a12,12,0,1,1,12,12A12,12,0,0,1,88,92Z"/></svg>
